X:1
T:Pange lingua - Carturan
T:James Gibb editions
%%score { 1 | 2 } 3
L:1/8
Q:1/4=69
M:4/4
K:G
V:1 treble nm="Soprano I" snm="S"
V:2 treble 
V:3 treble nm="Alto" snm="A"
V:1
"^Pange lingua""^Carlo Carturan\n(1858-1936)""^moderato"!p! d6 ^c2 | d4 B4 | %2
w: Pan- ge|lin- gua|
!<(! (e2 A2 B2)!<)! =c2 |!>(! B4 A4!>)! | (G2 B2 e2) d2 | c4 (d2 B2) |[M:4/4] A6 A2 | B6 z2 | %8
w: glo\- * * ri-|o- si|Cor\- * * po-|ris my\- *|ste- ri-|um,|
 G4 (A2 B2) | (c3 B)"^," A2 (A2- | A2 Bc d2) B2 | (e3 d)"^," c2!f! e2- | e4 (f2 d2) | %13
w: San- gui\- *|ni\- * sque pre\-|* * * * ti-|o\- * si, quem|* in *|
 (e3 f g2) e2 | d6 ^c2 | d6 z2 |!p! d6 ^c2 | d4 B4 |!<(! (A2 B2 =c2) e2!<)! | %19
w: mun\- * * di|pre- ti-|um|fru- ctus|ven- tris|ge\- * * ne-|
!>(! (d2 cB) A2!>)! (AB | c4 d2)!<(! (ef) | (g3 f!<)! e2) c2 |!f! (BdcB A3) A | !fermata!B8 || %24
w: ro\- * * si Rex *|* * ef\- *|fu\- * * dit|gen\- * * * * ti-|um.|
 (G2 AB c4- |!>(! c2 BA)!>)! !fermata!B4 |] %26
w: A\- * * *|* * * men.|
V:2
!p! (B4 A2) G2 | F4 G4 |!<(! G6!<)! G2 |!>(! G4 F4!>)! | G6 ^G2 | A4 (F2 =G2) |[M:4/4] (G4 F2) E2 | %7
w: Pan\- * ge|lin- gua|glo- ri-|o- si|Cor- po-|ris my\- *|ste\- * ri-|
 ^D6 z2 | E4 F4 | E4 E2 z2 | F6 G2 | G4 G2 z2 |!f! c4 A4 | B6 B2 | A4 G4 | F6 z2 |!p! (B4 A2) G2 | %17
w: um,|San- gui-|ni- sque|pre- ti-|o- si,|quem in|mun- di|pre- ti-|um|fru\- * ctus|
 F4 G4 | G6 G2 | (B2 AG) F2 z2 | z2 (FG A2) c2 | B6 G2 |!f! G6 F2 | !fermata!G8 || (G2 F2 E2 F2 | %25
w: ven- tris|ge- ne-|ro\- * * si|Rex * * ef-|fu- dit|gen- ti-|um.|A\- * * *|
!>(! G4)!>)! !fermata!D4 |] %26
w: * men.|
V:3
!p! (G4 F2) E2 | D4 E4 | (C4 D2) E2 | D4 D4 | (E2!<(! D2 C2) B,2!<)! | A,4 (B,2 E2) | %6
w: Pan\- * ge|lin- gua|glo\- * ri-|o- si|Cor\- * * po-|ris my\- *|
[M:4/4]!>(! C6 C2!>)! | B,6 z2 | E4 D4 | (A,3 B,) C2 z2 | (D4 B,2) E2 | (C3 D) E2 z2 | %12
w: ste- ri-|um,|San- gui-|ni\- * sque|pre\- * ti-|o\- * si,|
!f! (AGFE) (D2 F2) | (G3 F E2) G2 | F4 E4 | D6 z2 |!p! (G4 F2) E2 | D4 E4 | (C2 D2 E2) C2 | %19
w: quem * * * in *|mun\- * * di|pre- ti-|um|fru\- * ctus|ven- tris|ge\- * * ne-|
 D4 D2 z2 | z2 (DE F2)!<(! D2 | (E3 F!<)! G2) E2 |!f! (DB,A,G,) D4 | !fermata!G,8 || %24
w: ro- si|Rex * * ef-|fu\- * * dit|gen\- * * * ti-|um.|
 (E2 D2 C2 A,2) | !fermata!G,8 |] %26
w: A\- * * *|men.|

